img/icons/icon-qualification.svg

<?xml version="1.0" encoding="UTF-8"?>
<svg width="70px" height="70px" viewBox="0 0 70 70" version="1.1" xmlns="http://www.w3.org/2000/svg" xmlns:xlink="http://www.w3.org/1999/xlink">
    <!-- Generator: Sketch 59.1 (86144) - https://sketch.com -->
    <title>icon-qualification</title>
    <desc>Created with Sketch.</desc>
    <g id="Page-1" stroke="none" stroke-width="1" fill="none" fill-rule="evenodd">
        <g id="icon-qualification" fill="#FFFFFF" fill-rule="nonzero">
            <path d="M61.2507,12.7149 C62.0058,12.7149 62.6179,12.1028 62.6179,11.3476 L62.6179,4.10156 C62.6179,1.83996 60.778,0 58.5163,0 L4.10229,0 C1.8407,0 0.000732422,1.83996 0.000732422,4.10156 L0.000732422,65.8985 C0.000732422,68.16 1.8407,70 4.10229,70 L58.5163,70 C60.778,70 62.6179,68.16 62.6179,65.8985 L62.6179,62.0703 C62.6179,61.3152 62.0058,60.7031 61.2507,60.7031 C60.4957,60.7031 59.8836,61.3152 59.8836,62.0703 L59.8836,65.8985 C59.8836,66.6523 59.2702,67.2656 58.5163,67.2656 L4.10229,67.2656 C3.34842,67.2656 2.73511,66.6523 2.73511,65.8985 L2.73511,4.10156 C2.73511,3.34769 3.34842,2.73438 4.10229,2.73438 L58.5163,2.73438 C59.2702,2.73438 59.8836,3.34769 59.8836,4.10156 L59.8836,11.3476 C59.8836,12.1028 60.4957,12.7149 61.2507,12.7149 Z" id="Path"></path>
            <path d="M54.6889,6.5625 L7.92944,6.5625 C7.17435,6.5625 6.56226,7.17459 6.56226,7.92969 L6.56226,36.5039 C6.56226,37.259 7.17435,37.8711 7.92944,37.8711 C8.68454,37.8711 9.29664,37.259 9.29664,36.5039 L9.29664,9.29687 L53.3217,9.29687 L53.3217,11.4844 C53.3217,12.2395 53.934,12.8515 54.6889,12.8515 C55.444,12.8515 56.0561,12.2395 56.0561,11.4844 L56.0561,7.92969 C56.0561,7.17459 55.444,6.5625 54.6889,6.5625 Z" id="Path"></path>
            <path d="M8.89546,40.5959 C8.64116,40.3417 8.2898,40.1953 7.92883,40.1953 C7.56926,40.1953 7.21653,40.3417 6.96224,40.5959 C6.70794,40.8502 6.56165,41.203 6.56165,41.5625 C6.56165,41.9221 6.70794,42.2749 6.96224,42.5292 C7.21653,42.7834 7.56926,42.9298 7.92883,42.9298 C8.2898,42.9298 8.64116,42.7834 8.89546,42.5292 C9.15112,42.2749 9.29605,41.9221 9.29605,41.5625 C9.29605,41.203 9.15112,40.8502 8.89546,40.5959 Z" id="Path"></path>
            <path d="M54.6889,57.6953 C53.9338,57.6953 53.3217,58.3074 53.3217,59.0625 L53.3217,60.7032 L9.29664,60.7032 L9.29664,46.8262 C9.29664,46.0711 8.68454,45.459 7.92944,45.459 C7.17435,45.459 6.56226,46.0711 6.56226,46.8262 L6.56226,62.0703 C6.56226,62.8254 7.17435,63.4375 7.92944,63.4375 L54.6889,63.4375 C55.444,63.4375 56.0561,62.8254 56.0561,62.0703 L56.0561,59.0625 C56.0561,58.3074 55.444,57.6953 54.6889,57.6953 Z" id="Path"></path>
            <path d="M42.3702,48.3077 C41.8364,47.7737 40.9708,47.7737 40.4368,48.3076 L37.7346,51.0099 L36.0551,49.3301 C34.9945,48.2697 33.2693,48.2697 32.2088,49.3301 L31.1158,50.4231 C30.582,50.9569 30.582,51.8227 31.1158,52.3567 C31.6497,52.8906 32.5154,52.8906 33.0495,52.3567 L34.132,51.2741 L35.8116,52.9539 C36.3418,53.4841 37.0382,53.7491 37.7346,53.7491 C38.4311,53.7491 39.1276,53.4841 39.6577,52.9539 L42.3702,50.2414 C42.9041,49.7075 42.9041,48.8418 42.3702,48.3077 Z" id="Path"></path>
            <path d="M69.3711,28.6811 C69.9736,27.7411 70.1536,26.5834 69.8646,25.505 C69.5755,24.4265 68.8411,23.5139 67.8492,23.0012 C67.419,22.7789 67.1557,22.3229 67.1783,21.8392 C67.2301,20.7239 66.8071,19.6315 66.0177,18.842 C65.2283,18.0526 64.1362,17.6289 63.0204,17.6814 C62.5345,17.7049 62.0807,17.4405 61.8584,17.0105 C61.3457,16.0187 60.4332,15.2841 59.3547,14.9952 C58.2758,14.706 57.1185,14.886 56.1787,15.4886 C55.7712,15.75 55.2445,15.7498 54.8371,15.4886 C53.8972,14.8859 52.7397,14.7061 51.6611,14.9952 C50.5827,15.2841 49.6701,16.0187 49.1574,17.0105 C48.9351,17.4406 48.4777,17.7033 47.9954,17.6814 C46.8797,17.6293 45.7877,18.0526 44.9983,18.842 C44.2087,19.6315 43.7857,20.7239 43.8375,21.8392 C43.8601,22.3229 43.5967,22.7789 43.1666,23.0012 C42.1749,23.5139 41.4404,24.4264 41.1513,25.505 C41.0134,26.0194 40.9834,26.552 41.0541,27.0703 L17.1966,27.0703 C16.4416,27.0703 15.8291,27.6823 15.8291,28.4375 C15.8291,29.1926 16.4416,29.8047 17.1966,29.8047 L41.7526,29.8047 C41.7232,29.8797 41.6892,29.9534 41.6445,30.0229 C41.0421,30.9628 40.8621,32.1205 41.1511,33.199 C41.1908,33.347 41.2396,33.4917 41.2957,33.6327 L17.1962,33.6327 C16.4411,33.6327 15.8291,34.2448 15.8291,35 C15.8291,35.7551 16.4411,36.3671 17.1962,36.3671 L43.7559,36.3671 C43.8154,36.5234 43.8452,36.692 43.8371,36.8647 C43.7853,37.9801 44.2083,39.0724 44.9979,39.8619 C45.7873,40.6514 46.8793,41.0752 47.9951,41.0226 C48.4781,40.9989 48.9346,41.2633 49.157,41.6935 C49.3212,42.0112 49.5269,42.302 49.7655,42.5608 L49.7655,55.3293 C49.7655,55.8817 50.0979,56.3798 50.6079,56.5918 C51.1177,56.8039 51.7053,56.6882 52.097,56.2986 L55.5077,52.9057 L58.9185,56.2986 C59.1799,56.5586 59.5284,56.6966301 59.883,56.6966301 C60.0596,56.6966301 60.2379,56.6623 60.4076,56.5917 C60.9175,56.3796 61.2499,55.8816 61.2499,55.3292 L61.2499,42.5607 C61.4885,42.302 61.6942,42.011 61.8584,41.6933 C62.0807,41.2632 62.5374,41.0004 63.0204,41.0224 C64.1368,41.0752 65.2282,40.6514 66.0176,39.8618 C66.8071,39.0723 67.2301,37.9799 67.1783,36.8645 C67.1557,36.381 67.4192,35.9248 67.8492,35.7026 C68.8409,35.1898 69.5755,34.2774 69.8646,33.1988 C70.1536,32.1203 69.9736,30.9626 69.3711,30.0226 C69.1098,29.6153 69.1098,29.0886 69.3711,28.6811 Z M58.5155,52.0408 L56.4718,50.0079 C55.9385,49.4772 55.0767,49.4772 54.5435,50.0079 L52.4999,52.0408 L52.4999,43.8388 C53.3179,43.8774 54.1376,43.6636 54.837,43.2154 C55.2445,42.954 55.7712,42.9541 56.1786,43.2154 C56.8243,43.6294 57.5727,43.8439 58.3279,43.8439 C58.3905,43.8439 58.4529,43.8407 58.5155,43.8377 L58.5155,52.0408 Z M67.2233,32.4913 C67.1317,32.8332 66.9079,33.1112 66.5934,33.2738 C65.2174,33.9851 64.3747,35.4445 64.4468,36.9918 C64.4633,37.3455 64.3344,37.6782 64.0841,37.9286 C63.8337,38.1789 63.5011,38.3075 63.1474,38.2913 C61.5992,38.2197 60.1407,39.0619 59.4294,40.4379 C59.2668,40.7525 58.9889,40.9762 58.6468,41.0679 C58.3049,41.1593 57.9522,41.1048 57.6543,40.9136 C57.0021,40.4955 56.255,40.2866 55.5076,40.2866 C54.7604,40.2866 54.013,40.4957 53.361,40.9136 C53.0629,41.1046 52.7103,41.1593 52.3684,41.0679 C52.0263,40.9762 51.7485,40.7524 51.5858,40.4379 C50.8744,39.062 49.4162,38.219 47.8677,38.2913 C47.5148,38.3076 47.1814,38.1789 46.9311,37.9286 C46.6806,37.6782 46.5518,37.3455 46.5683,36.9917 C46.6191,35.8995 46.2126,34.8526 45.4862,34.0803 C45.4649,34.0569 45.4432,34.0339 45.4202,34.012 C45.1317,33.7196 44.7974,33.468 44.4217,33.2738 C44.1073,33.1112 43.8836,32.8334 43.792,32.4913 C43.7004,32.1492 43.7551,31.7967 43.9462,31.4988 C44.7823,30.1947 44.7823,28.5095 43.9462,27.2055 C43.7552,26.9074 43.7004,26.5549 43.792,26.2128 C43.8836,25.8709 44.1074,25.5929093 44.4219,25.4303 C45.7978,24.719 46.6404,23.2597 46.5685,21.7123 C46.5519,21.3586 46.6809,21.026 46.9312,20.7755 C47.1815,20.525 47.5148,20.3965 47.8679,20.4128 C49.4162,20.4845 50.8748,19.6422 51.5859,18.2661 C51.7485,17.9515 52.0264,17.7279 52.3685,17.6363 C52.7104,17.5448 53.0631,17.5994 53.361,17.7905 C54.6651,18.6266 56.3504,18.6266 57.6542,17.7905 C57.9522,17.5995 58.3047,17.5445 58.6468,17.6363 C58.9889,17.7279 59.2666,17.9517 59.4294,18.2661 C60.1407,19.642 61.5999,20.4849 63.1474,20.4128 C63.5012,20.3966 63.8337,20.525 64.0841,20.7755 C64.3346,21.026 64.4633,21.3586 64.4468,21.7123 C64.3749,23.2595 65.2174,24.719 66.5936,25.4303 C66.908,25.5929093 67.1317,25.8707 67.2233,26.2128 C67.3149,26.5549 67.2602,26.9074 67.069,27.2054 C66.233,28.5094 66.233,30.1945 67.069,31.4986 C67.2602,31.7967 67.315,32.1492 67.2233,32.4913 Z" id="Shape"></path>
            <path d="M62.0096,25.6329 C61.4758,25.0989 60.6101,25.0989 60.0762,25.6329 L55.5383,30.1708 L53.7319,28.3644 C53.1979,27.8305 52.3322,27.8305 51.7983,28.3644 C51.2643,28.8982 51.2643,29.7639 51.7983,30.298 L54.5715,33.0711 C54.8384,33.3382 55.1883,33.4716 55.5382,33.4716 C55.888,33.4716 56.238,33.3382 56.5049,33.0711 L62.0096,27.5664 C62.5435,27.0325 62.5435,26.1668 62.0096,25.6329 Z" id="Path"></path>
            <path d="M16.6898,16.5334 C16.4355,16.2792 16.0827,16.1328 15.7232,16.1328 C15.3636,16.1328 15.0109,16.2792 14.7565,16.5334 C14.5023,16.7877 14.356,17.1405 14.356,17.5 C14.356,17.8596 14.5023,18.2124 14.7565,18.4667 C15.0109,18.7209 15.3636,18.8673 15.7232,18.8673 C16.0827,18.8673 16.4355,18.7209 16.6898,18.4667 C16.944,18.2124 17.0903,17.8596 17.0903,17.5 C17.0903,17.1405 16.944,16.7877 16.6898,16.5334 Z" id="Path"></path>
            <path d="M27.48,16.1328 L20.8264,16.1328 C20.0713,16.1328 19.4592,16.7449 19.4592,17.5 C19.4592,18.2552 20.0713,18.8673 20.8264,18.8673 L27.48,18.8673 C28.2352,18.8673 28.8473,18.2552 28.8473,17.5 C28.8473,16.7449 28.2352,16.1328 27.48,16.1328 Z" id="Path"></path>
            <path d="M41.4037,40.1953 L25.7737,40.1953 C25.0186,40.1953 24.4065,40.8074 24.4065,41.5625 C24.4065,42.3177 25.0186,42.9298 25.7737,42.9298 L41.4035,42.9298 C42.1587,42.9298 42.7708,42.3177 42.7708,41.5625 C42.7708,40.8074 42.1588,40.1953 41.4037,40.1953 Z" id="Path"></path>
        </g>
    </g>
</svg>

<svg width="70" height="70" xmlns="http://www.w3.org/2000/svg"><g fill="#FFF"><path d="M61.25 12.715c.756 0 1.368-.612 1.368-1.367V4.102A4.106 4.106 0 0058.516 0H4.102A4.106 4.106 0 00.001 4.102v61.797A4.106 4.106 0 004.102 70h54.414a4.106 4.106 0 004.102-4.102V62.07a1.367 1.367 0 10-2.734 0v3.828a1.37 1.37 0 01-1.368 1.368H4.102a1.369 1.369 0 01-1.367-1.368V4.102a1.37 1.37 0 011.367-1.368h54.414a1.37 1.37 0 011.368 1.368v7.246c0 .755.612 1.367 1.367 1.367z"/><path d="M54.689 6.563H7.929c-.755 0-1.367.612-1.367 1.367v28.574a1.367 1.367 0 102.735 0V9.297h44.025v2.187a1.367 1.367 0 002.734 0V7.93c0-.755-.612-1.367-1.367-1.367zM8.895 40.596a1.376 1.376 0 00-.966-.4c-.36 0-.712.146-.967.4-.254.254-.4.607-.4.967s.146.712.4.966c.255.254.607.4.967.4s.712-.146.966-.4a1.37 1.37 0 00.001-1.933zm45.794 17.099c-.755 0-1.367.612-1.367 1.367v1.641H9.297V46.826a1.367 1.367 0 10-2.735 0V62.07c0 .755.612 1.367 1.367 1.367h46.76c.755 0 1.367-.612 1.367-1.367v-3.008c0-.755-.612-1.367-1.367-1.367z"/><path d="M42.37 48.308a1.367 1.367 0 00-1.933 0l-2.702 2.702-1.68-1.68a2.723 2.723 0 00-3.846 0l-1.093 1.093a1.368 1.368 0 001.934 1.934l1.082-1.083 1.68 1.68a2.71 2.71 0 001.923.795 2.71 2.71 0 001.923-.795l2.712-2.713c.534-.533.534-1.4 0-1.933z"/><path d="M69.371 28.681c.603-.94.783-2.098.494-3.176a3.986 3.986 0 00-2.016-2.504 1.246 1.246 0 01-.67-1.162 3.986 3.986 0 00-1.161-2.997 3.983 3.983 0 00-2.998-1.16 1.243 1.243 0 01-1.162-.671 3.985 3.985 0 00-2.503-2.016 3.984 3.984 0 00-3.176.494 1.246 1.246 0 01-1.342 0 3.985 3.985 0 00-3.176-.494 3.985 3.985 0 00-2.504 2.016c-.222.43-.68.692-1.162.67a3.984 3.984 0 00-2.997 1.161 3.986 3.986 0 00-1.16 2.997c.022.484-.241.94-.671 1.162a3.972 3.972 0 00-2.113 4.07H17.197a1.367 1.367 0 100 2.734h24.556c-.03.075-.064.148-.108.218a3.987 3.987 0 00-.35 3.61H17.197a1.367 1.367 0 000 2.734h26.56c.06.156.09.325.081.498a3.986 3.986 0 001.16 2.997 3.982 3.982 0 002.998 1.16c.483-.023.94.241 1.162.672.164.317.37.608.609.867v12.768a1.367 1.367 0 002.331.97l3.41-3.393 3.412 3.393a1.367 1.367 0 002.33-.97V42.561c.24-.259.445-.55.61-.868.222-.43.678-.693 1.161-.67a3.98 3.98 0 004.158-4.159c-.022-.483.241-.94.671-1.161a3.986 3.986 0 002.016-2.504 3.986 3.986 0 00-.494-3.176 1.246 1.246 0 010-1.342zm-10.855 23.36l-2.044-2.033a1.367 1.367 0 00-1.928 0L52.5 52.04v-8.202a3.987 3.987 0 002.337-.624 1.246 1.246 0 011.342 0 3.985 3.985 0 002.149.629c.063 0 .125-.003.188-.006v8.203zm8.707-19.55a1.23 1.23 0 01-.63.783 3.988 3.988 0 00-2.146 3.718 1.23 1.23 0 01-.363.937 1.23 1.23 0 01-.937.362 3.988 3.988 0 00-3.718 2.147 1.23 1.23 0 01-.782.63 1.23 1.23 0 01-.993-.154 3.975 3.975 0 00-2.146-.627c-.748 0-1.495.209-2.147.627a1.23 1.23 0 01-.993.154 1.23 1.23 0 01-.782-.63 3.987 3.987 0 00-3.718-2.147 1.23 1.23 0 01-.937-.362 1.23 1.23 0 01-.363-.937 3.986 3.986 0 00-1.148-2.98 3.954 3.954 0 00-.998-.738 1.229 1.229 0 01-.63-.783 1.229 1.229 0 01.154-.992 3.988 3.988 0 000-4.293 1.23 1.23 0 01-.154-.993 1.23 1.23 0 01.63-.783 3.988 3.988 0 002.147-3.718 1.23 1.23 0 01.362-.936c.25-.251.584-.38.937-.363a3.987 3.987 0 003.718-2.147c.163-.314.44-.538.782-.63a1.23 1.23 0 01.993.155 3.988 3.988 0 004.293 0c.298-.192.65-.247.993-.155.342.092.62.316.782.63a3.988 3.988 0 003.718 2.147 1.23 1.23 0 01.937.363c.25.25.38.583.363.936a3.988 3.988 0 002.147 3.718c.314.163.538.44.63.783.09.342.036.694-.155.992a3.988 3.988 0 000 4.294c.191.298.246.65.154.992z"/><path d="M62.01 25.633a1.367 1.367 0 00-1.934 0l-4.538 4.538-1.806-1.807a1.367 1.367 0 00-1.934 1.934l2.773 2.773c.267.267.617.4.967.4s.7-.133.967-.4l5.505-5.505c.534-.534.534-1.4 0-1.933zm-45.32-9.1a1.378 1.378 0 00-.967-.4c-.36 0-.712.146-.966.4-.255.255-.401.607-.401.967s.146.712.4.967c.255.254.608.4.967.4.36 0 .713-.146.967-.4.254-.255.4-.607.4-.967s-.146-.712-.4-.967zm10.79-.4h-6.654a1.367 1.367 0 100 2.734h6.654a1.367 1.367 0 100-2.734zm13.924 24.062h-15.63a1.367 1.367 0 100 2.735h15.63a1.367 1.367 0 000-2.735z"/></g></svg>
